apps/presentationeditor/main/resources/img/toolbar/2.5x/big/btn-gridlines.svg

<svg width="28" height="28" fill="none" xmlns="http://www.w3.org/2000/svg"><path fill-rule="evenodd" clip-rule="evenodd" d="M23 7H4v14h19V7zM4 6a1 1 0 0 0-1 1v14a1 1 0 0 0 1 1h19a1 1 0 0 0 1-1V7a1 1 0 0 0-1-1H4z" fill="#000"/><path opacity=".4" fill-rule="evenodd" clip-rule="evenodd" d="M9 7v4h4V7h1v4h4V7h1v4h4v1h-4v4h4v1h-4v4h-1v-4h-4v4h-1v-4H9v4H8v-4H4v-1h4v-4H4v-1h4V7h1zm0 9h4v-4H9v4zm5 0h4v-4h-4v4z" fill="#000"/></svg>

<svg width="28" height="28" viewBox="0 0 28 28" fill="none" xmlns="http://www.w3.org/2000/svg">
<rect x="3.5" y="6.5" width="20" height="15" rx="0.5" stroke="black"/>
<path opacity="0.5" fill-rule="evenodd" clip-rule="evenodd" d="M9 7V11L13 11V7H14V11H18V7H19V11L24 11V12L19 12V16H24V17H19V21H18V17L14 17V21H13V17H9V21H8V17H4V16H8V12H4V11H8V7H9ZM9 16H13V12L9 12V16ZM14 16L18 16V12H14V16Z" fill="black"/>
</svg>
